packages/core/src/svgs/tokens/mono/UNCX.svg

<svg width="24" height="24" viewBox="0 0 24 24" fill="none" xmlns="http://www.w3.org/2000/svg">
<path fill-rule="evenodd" clip-rule="evenodd" d="M11.9999 22C17.5228 22 22 17.5228 22 11.9999C22 6.47713 17.5228 2 11.9999 2C6.47713 2 2 6.47713 2 11.9999C2 17.5228 6.47713 22 11.9999 22ZM12.6244 21.3742C16.9994 21.3742 21.3744 16.4244 21.3744 11.3743C21.3744 10.568 21.3744 9.49935 20.7493 8.87434C19.2744 7.44934 17.8618 6.73684 17.8681 6.7431L17.0055 7.70559C17.0181 7.6806 17.3806 6.54934 17.3806 6.52435C17.3806 6.52435 15.8994 5.8931 14.5618 5.81185L14.293 7.13059L14.118 5.7681C14.111 5.7681 14.0924 5.76726 14.063 5.76594C13.7534 5.75206 12.2648 5.68531 10.9743 5.99935L11.6368 7.19935C11.0743 7.07434 10.5368 7.12435 9.83054 8.15559L8.36187 7.88684V7.89309L4.49937 7.20559L9.0181 9.30554C9.0181 9.30554 6.83063 12.7431 6.59936 13.1306C6.35562 13.5369 6.09938 14.2618 7.43061 14.5993C7.68061 14.6805 7.93061 14.7305 8.19311 14.7556C9.58131 14.7124 10.8538 14.2429 12.1248 13.7739L12.1744 13.7556L12.6994 13.5618C12.6992 13.5617 12.6995 13.562 12.6994 13.5618L12.7034 13.5659C13.1199 13.9509 14.3831 15.1183 13.1994 17.0373C12.4307 18.29 10.8334 18.709 9.293 18.8367C8.45768 18.9015 7.64586 18.8872 6.99937 18.8744C8.50816 20.151 9.49979 20.566 9.91002 20.6948C10.7488 21.1004 11.6412 21.3742 12.6244 21.3742ZM12.1681 9.98687L10.7493 11.0306C10.7493 11.0306 10.3118 10.5181 10.8744 10.093C11.0646 9.97025 11.2822 9.89616 11.5079 9.87764C11.7337 9.85912 11.9604 9.8966 12.1681 9.98687Z" fill="white"/>
</svg>

<svg xmlns="http://www.w3.org/2000/svg" width="24" height="24" fill="none" viewBox="0 0 24 24">
    <path fill="#fff" fill-rule="evenodd" d="M12 22c5.523 0 10-4.477 10-10S17.523 2 12 2 2 6.477 2 12s4.477 10 10 10m.624-.626c4.375 0 8.75-4.95 8.75-10 0-.806 0-1.875-.625-2.5-1.475-1.425-2.887-2.137-2.88-2.13l-.863.962c.012-.025.375-1.157.375-1.182 0 0-1.482-.63-2.82-.712l-.268 1.319-.175-1.363-.055-.002c-.31-.014-1.798-.08-3.089.233l.663 1.2c-.563-.125-1.1-.075-1.806.957l-1.47-.27v.007L4.5 7.206l4.52 2.1s-2.188 3.437-2.42 3.825c-.243.406-.5 1.13.832 1.468.25.082.5.131.762.157 1.388-.044 2.66-.513 3.932-.982l.05-.018.524-.194.004.004c.417.385 1.68 1.552.496 3.471-.768 1.253-2.366 1.672-3.906 1.8-.835.064-1.647.05-2.294.037 1.51 1.277 2.5 1.692 2.911 1.82.839.406 1.731.68 2.714.68m-.456-11.387L10.75 11.03s-.437-.513.125-.938a1.38 1.38 0 0 1 1.294-.106" clip-rule="evenodd"/>
</svg>
